icons/circle/48/TruckSim.svg

<svg xmlns="http://www.w3.org/2000/svg" viewBox="0 0 48 48">
 <defs>
  <linearGradient id="linearGradient3764" y1="47" x2="0" y2="1" gradientUnits="userSpaceOnUse">
   <stop style="stop-color:#757575;stop-opacity:1"/>
   <stop offset="1" style="stop-color:#7f7f7f;stop-opacity:1"/>
  </linearGradient>
 </defs>
 <g>
  <path d="m 36.31 5 c 5.859 4.062 9.688 10.831 9.688 18.5 c 0 12.426 -10.07 22.5 -22.5 22.5 c -7.669 0 -14.438 -3.828 -18.5 -9.688 c 1.037 1.822 2.306 3.499 3.781 4.969 c 4.085 3.712 9.514 5.969 15.469 5.969 c 12.703 0 23 -10.298 23 -23 c 0 -5.954 -2.256 -11.384 -5.969 -15.469 c -1.469 -1.475 -3.147 -2.744 -4.969 -3.781 z m 4.969 3.781 c 3.854 4.113 6.219 9.637 6.219 15.719 c 0 12.703 -10.297 23 -23 23 c -6.081 0 -11.606 -2.364 -15.719 -6.219 c 4.16 4.144 9.883 6.719 16.219 6.719 c 12.703 0 23 -10.298 23 -23 c 0 -6.335 -2.575 -12.06 -6.719 -16.219 z" style="opacity:0.05"/>
  <path d="m 41.28 8.781 c 3.712 4.085 5.969 9.514 5.969 15.469 c 0 12.703 -10.297 23 -23 23 c -5.954 0 -11.384 -2.256 -15.469 -5.969 c 4.113 3.854 9.637 6.219 15.719 6.219 c 12.703 0 23 -10.298 23 -23 c 0 -6.081 -2.364 -11.606 -6.219 -15.719 z" style="opacity:0.1"/>
  <path d="m 31.25 2.375 c 8.615 3.154 14.75 11.417 14.75 21.13 c 0 12.426 -10.07 22.5 -22.5 22.5 c -9.708 0 -17.971 -6.135 -21.12 -14.75 a 23 23 0 0 0 44.875 -7 a 23 23 0 0 0 -16 -21.875 z" style="opacity:0.2"/>
 </g>
 <g>
  <path d="m 22 1.092 c -11.766 1.014 -21 10.88 -21 22.908 c 0 12.03 9.234 21.894 21 22.908 c 1.798 -2.257 2.194 -1.533 4 0 c 11.766 -1.014 21 -10.88 21 -22.908 c 0 -12.03 -9.234 -21.894 -21 -22.908 c -1.798 1.035 -1.978 0.958 -4 0 z" style="fill:url(#linearGradient3764);fill-opacity:1"/>
  <path d="m 24 1 c -0.335 0 -0.668 0.011 -1 0.025 l 0 9.975 l 4 0 l 0 -9.799 c -0.983 -0.128 -1.982 -0.201 -3 -0.201 z m -1 19 l 0 10 l 4 0 l 0 -10 l -4 0 z m 0 19 l 0 7.975 c 0.332 0.014 0.665 0.025 1 0.025 c 1.018 0 2.02 -0.073 3 -0.201 l 0 -7.799 l -4 0 z" style="fill:#000;opacity:0.1;fill-opacity:1"/>
  <path d="m 24 1 c -0.674 0 -1.34 0.035 -2 0.092 l 0 8.908 l 4 0 l 0 -8.908 c -0.66 -0.057 -1.326 -0.092 -2 -0.092 z m -2 18 l 0 10 l 4 0 l 0 -10 l -4 0 z m 0 19 l 0 8.908 c 0.66 0.057 1.326 0.092 2 0.092 c 0.674 0 1.34 -0.035 2 -0.092 l 0 -8.908 l -4 0 z" style="fill:#f9f9f9;fill-opacity:1"/>
 </g>
 <g>
  <g>
   <g transform="translate(1,1)">
    <g style="opacity:0.1">
     <!-- color: #7f7f7f -->
    </g>
   </g>
  </g>
 </g>
 <g>
  <g>
   <!-- color: #7f7f7f -->
  </g>
 </g>
 <g>
  <path d="m 40.03 7.531 c 3.712 4.084 5.969 9.514 5.969 15.469 0 12.703 -10.297 23 -23 23 c -5.954 0 -11.384 -2.256 -15.469 -5.969 4.178 4.291 10.01 6.969 16.469 6.969 c 12.703 0 23 -10.298 23 -23 0 -6.462 -2.677 -12.291 -6.969 -16.469 z" style="opacity:0.1"/>
 </g>
</svg>

<svg xmlns="http://www.w3.org/2000/svg" viewBox="0 0 48 48">
  <defs>
    <linearGradient id="a" y1="47" x2="0" y2="1" gradientUnits="userSpaceOnUse">
      <stop stop-color="#757575"/>
      <stop offset="1" stop-color="#7f7f7f"/>
    </linearGradient>
  </defs>
  <path d="M36.31 5c5.859 4.062 9.688 10.831 9.688 18.5 0 12.426-10.07 22.5-22.5 22.5-7.669 0-14.438-3.828-18.5-9.688a23.24 23.24 0 0 0 3.781 4.969 22.923 22.923 0 0 0 15.469 5.969c12.703 0 23-10.298 23-23a22.92 22.92 0 0 0-5.969-15.469A23.216 23.216 0 0 0 36.31 5zm4.969 3.781A22.911 22.911 0 0 1 47.498 24.5c0 12.703-10.297 23-23 23a22.909 22.909 0 0 1-15.719-6.219C12.939 45.425 18.662 48 24.998 48c12.703 0 23-10.298 23-23 0-6.335-2.575-12.06-6.719-16.219z" opacity=".05"/>
  <path d="M41.28 8.781a22.923 22.923 0 0 1 5.969 15.469c0 12.703-10.297 23-23 23A22.92 22.92 0 0 1 8.78 41.281 22.911 22.911 0 0 0 24.499 47.5c12.703 0 23-10.298 23-23A22.909 22.909 0 0 0 41.28 8.781z" opacity=".1"/>
  <path d="M31.25 2.375C39.865 5.529 46 13.792 46 23.505c0 12.426-10.07 22.5-22.5 22.5-9.708 0-17.971-6.135-21.12-14.75a23 23 0 0 0 44.875-7 23 23 0 0 0-16-21.875z" opacity=".2"/>
  <path d="M22 1.092C10.234 2.106 1 11.972 1 24c0 12.03 9.234 21.894 21 22.908 1.798-2.257 2.194-1.533 4 0C37.766 45.894 47 36.028 47 24c0-12.03-9.234-21.894-21-22.908-1.798 1.035-1.978.958-4 0z" fill="url(#a)"/>
  <path d="M24 1c-.335 0-.668.011-1 .025V11h4V1.201A23.194 23.194 0 0 0 24 1zm-1 19v10h4V20h-4zm0 19v7.975c.332.014.665.025 1 .025 1.018 0 2.02-.073 3-.201V39h-4z" opacity=".1"/>
  <path d="M24 1c-.674 0-1.34.035-2 .092V10h4V1.092A23.214 23.214 0 0 0 24 1zm-2 18v10h4V19h-4zm0 19v8.908c.66.057 1.326.092 2 .092.674 0 1.34-.035 2-.092V38h-4z" fill="#f9f9f9"/>
  <g>
    <path d="M40.03 7.531A22.922 22.922 0 0 1 45.999 23c0 12.703-10.297 23-23 23A22.92 22.92 0 0 1 7.53 40.031C11.708 44.322 17.54 47 23.999 47c12.703 0 23-10.298 23-23 0-6.462-2.677-12.291-6.969-16.469z" opacity=".1"/>
  </g>
</svg>
